picto/2nd-class-framed.svg

<svg class="color-immutable" width="30" height="30" viewBox="0 0 30 30" fill="none" xmlns="http://www.w3.org/2000/svg"><path d="M30 0H0V30H30V0Z" fill="#2D327D"/><path d="M22.9307 23.0594V27H6.46472C6.46472 25.7908 6.66265 24.6442 7.05895 23.5598C7.45502 22.4757 8.02307 21.5374 8.76347 20.7451C9.32642 20.1406 9.9832 19.5543 10.7338 18.9859C11.4844 18.4179 12.9907 17.3624 15.253 15.8194C16.3475 15.0688 17.1138 14.3783 17.5516 13.7475C17.9894 13.1168 18.2084 12.3846 18.2084 11.5504C18.2084 10.5809 17.9137 9.79656 17.3249 9.19701C16.7358 8.59769 15.9617 8.29791 15.0028 8.29791C12.6467 8.29791 11.4321 9.93464 11.3593 13.208H6.96512C6.96512 12.9996 6.96512 12.838 6.96512 12.7232C6.96512 10.0441 7.74167 7.96949 9.29507 6.49964C10.8065 5.06099 12.7665 4.34174 15.1747 4.34174C17.2803 4.34174 19.0527 4.92569 20.4914 6.09314C22.0446 7.36514 22.8213 9.07476 22.8213 11.2222C22.8213 13.0987 22.201 14.7146 20.9604 16.0697C20.5538 16.5076 20.1758 16.8621 19.8267 17.1331C19.4774 17.4043 18.5418 18.0454 17.0198 19.0565C15.5602 20.047 14.5257 20.7922 13.9158 21.2926C13.306 21.793 12.7352 22.382 12.2036 23.0596H22.9307V23.0594Z" fill="white"/></svg>

<svg class="color-immutable" width="30" height="30" viewBox="0 0 30 30" fill="none" xmlns="http://www.w3.org/2000/svg"><g clip-path="url(#a)"><path d="M30 0H0v30h30V0Z" fill="#2D327D"/><path d="M22.93 23.06V27H6.466c0-1.21.198-2.356.594-3.44a8.18 8.18 0 0 1 1.704-2.815c.563-.604 1.22-1.19 1.97-1.76.751-.567 2.258-1.623 4.52-3.166 1.095-.75 1.86-1.44 2.299-2.072.437-.63.656-1.362.656-2.197 0-.97-.294-1.753-.883-2.353-.59-.6-1.363-.9-2.322-.9-2.356 0-3.57 1.638-3.644 4.911H6.965v-.485c0-2.679.777-4.754 2.33-6.223 1.511-1.439 3.472-2.158 5.88-2.158 2.105 0 3.878.584 5.316 1.751 1.554 1.272 2.33 2.982 2.33 5.13 0 1.876-.62 3.492-1.86 4.847a9.735 9.735 0 0 1-1.134 1.063c-.35.271-1.285.912-2.807 1.924-1.46.99-2.494 1.735-3.104 2.236-.61.5-1.18 1.089-1.712 1.767H22.93Z" fill="#fff"/></g><defs><clipPath id="a"><path fill="#fff" d="M0 0h30v30H0z"/></clipPath></defs></svg>
